X:348
T: Schtzelein, bist bs'?, S. 65
N: P0608
O: Lothringen
S: PINCK, Louis: Verklingende Weisen Bd 4, Kassel 1939]
R: Brautwerbung]
M: 3/4
L: 1/8
K: G
 | DDG2A2 | B4AA | G2B2B2
G2B2B2
G2G2A2 | B4G2 | A2B2G2
D2G2A2 | B4B2 | d2c2A2 | G4z2

